X: 1
T: Caitlin Triall
R: Waltz
C: Turlough O'Carolan (1670-1738)
S: http://www.youtube.com/watch?v=IH294WTRrdM
O: Ireland
M: 3/4
L: 1/8
K: G
G>E "A"|\
"G"D3 E G2 | G2 A2 B2 | "Em"B2 g2 f2 | "C"e g3 e2 |\
"G"d3 B G2 | "Em(D7)"B A3 G2 |1 "C"E6- | "D7"E4 :|2 "C"G6- | "G"G4 ||
de/f/ "B"|\
"G"g3 f g2 | "Em"e d3 B2 | "G"g3 f g2 |\
"C"e g3 e2 | "G"d3 B G2 | "Em"B A3 G2 | "C"E6- | "D7"E4 ||
G>E "A3"|\
"G"D3 E G2 | G2 A2 B2 | "Em"B2 g2 f2 | "C"e g3 e2 |\
"G"d3 B G2 | "D7"B4 A2 | "C"G3 A GF | "G"G4 |]
